app/assets/images/Contenido/Amigos.svg

<svg fill="none" height="38" viewBox="0 0 54 38" width="54" xmlns="http://www.w3.org/2000/svg"><path d="m16.2 19c5.2228 0 9.45-4.2496 9.45-9.5 0-5.25045-4.2272-9.5-9.45-9.5s-9.45 4.24955-9.45 9.5c0 5.2504 4.2272 9.5 9.45 9.5zm6.48 2.7143h-.7003c-1.755.8482-3.7041 1.3571-5.7797 1.3571s-4.0163-.5089-5.7797-1.3571h-.7003c-5.36625 0-9.72 4.3768-9.72 9.7714v2.4429c0 2.2477 1.81406 4.0714 4.05 4.0714h24.3c2.2359 0 4.05-1.8237 4.05-4.0714v-2.4429c0-5.3946-4.3538-9.7714-9.72-9.7714zm17.82-2.7143c4.4719 0 8.1-3.6473 8.1-8.1429 0-4.49549-3.6281-8.14281-8.1-8.14281s-8.1 3.64732-8.1 8.14281c0 4.4956 3.6281 8.1429 8.1 8.1429zm4.05 2.7143h-.3206c-1.1728.4071-2.4132.6786-3.7294.6786-1.3163 0-2.5566-.2715-3.7294-.6786h-.3206c-1.7213 0-3.3075.5004-4.6997 1.3062 2.0588 2.2308 3.3497 5.1911 3.3497 8.4652v3.2572c0 .1866-.0422.3647-.0506.5428h14.9006c2.2359 0 4.05-1.8236 4.05-4.0714 0-5.2505-4.2272-9.5-9.45-9.5z" fill="#222"/></svg>

<svg width="54" height="38" viewBox="0 0 54 38" fill="none" xmlns="http://www.w3.org/2000/svg">
<path d="M16.2 19C21.4228 19 25.65 14.7504 25.65 9.5C25.65 4.24955 21.4228 0 16.2 0C10.9772 0 6.75 4.24955 6.75 9.5C6.75 14.7504 10.9772 19 16.2 19ZM22.68 21.7143H21.9797C20.2247 22.5625 18.2756 23.0714 16.2 23.0714C14.1244 23.0714 12.1837 22.5625 10.4203 21.7143H9.72C4.35375 21.7143 0 26.0911 0 31.4857V33.9286C0 36.1763 1.81406 38 4.05 38H28.35C30.5859 38 32.4 36.1763 32.4 33.9286V31.4857C32.4 26.0911 28.0462 21.7143 22.68 21.7143ZM40.5 19C44.9719 19 48.6 15.3527 48.6 10.8571C48.6 6.36161 44.9719 2.71429 40.5 2.71429C36.0281 2.71429 32.4 6.36161 32.4 10.8571C32.4 15.3527 36.0281 19 40.5 19ZM44.55 21.7143H44.2294C43.0566 22.1214 41.8162 22.3929 40.5 22.3929C39.1837 22.3929 37.9434 22.1214 36.7706 21.7143H36.45C34.7287 21.7143 33.1425 22.2147 31.7503 23.0205C33.8091 25.2513 35.1 28.2116 35.1 31.4857V34.7429C35.1 34.9295 35.0578 35.1076 35.0494 35.2857H49.95C52.1859 35.2857 54 33.4621 54 31.2143C54 25.9638 49.7728 21.7143 44.55 21.7143Z" fill="#222222"/>
</svg>
